app/assets/v2/images/products/labs-logo.svg

<svg width="22" height="41" viewBox="0 0 22 41" fill="none" xmlns="http://www.w3.org/2000/svg">
<path fill-rule="evenodd" clip-rule="evenodd" d="M12.2064 7.91133C13.14 7.91133 13.8969 7.21845 13.8969 6.36374C13.8969 5.50904 13.14 4.81616 12.2064 4.81616C11.2727 4.81616 10.5158 5.50904 10.5158 6.36374C10.5158 7.21845 11.2727 7.91133 12.2064 7.91133Z" fill="url(#paint0_linear)"/>
<path fill-rule="evenodd" clip-rule="evenodd" d="M9.32222 4.5552C10.0472 4.5552 10.6349 4.01719 10.6349 3.35353C10.6349 2.68986 10.0472 2.15186 9.32222 2.15186C8.59724 2.15186 8.00952 2.68986 8.00952 3.35353C8.00952 4.01719 8.59724 4.5552 9.32222 4.5552Z" fill="url(#paint1_linear)"/>
<path fill-rule="evenodd" clip-rule="evenodd" d="M12.9844 0.894834C12.9844 1.38212 12.5523 1.7771 12.0207 1.7771C11.4878 1.7771 11.0561 1.38212 11.0561 0.894834C11.0561 0.407431 11.4878 0.012207 12.0207 0.012207C12.5523 0.0123264 12.9844 0.40755 12.9844 0.894834Z" fill="url(#paint2_linear)"/>
<path fill-rule="evenodd" clip-rule="evenodd" d="M14.9342 19.0964C15.4155 20.2764 19.9812 31.4621 21.6972 35.4975C22.2075 36.6972 22.0694 37.9896 21.3086 39.1362C20.6181 40.1771 19.4625 40.9619 18.6208 40.9619C17.2071 40.9619 13.8623 40.9793 11.83 40.9906V41C11.8279 41 11.8184 41 11.8021 40.9999C11.7138 40.9994 11.4244 40.9976 10.9999 40.9953C10.6645 40.9971 10.4134 40.9986 10.2792 40.9994C10.2122 40.9998 10.1744 41 10.1698 41V40.9906C8.13757 40.9793 4.79274 40.9619 3.379 40.9619C2.53734 40.9619 1.38188 40.1771 0.691297 39.1362C-0.0695021 37.9896 -0.207391 36.6973 0.302723 35.4975C2.01873 31.4619 6.58429 20.2764 7.06563 19.0964L7.1181 14.892C7.11696 14.8922 7.11577 14.8924 7.11458 14.8925C7.11286 14.8928 7.11113 14.893 7.10948 14.8934L7.14028 11.9386C6.93053 11.73 6.66299 11.376 6.61077 10.8938C6.52028 10.0586 7.13584 9.29197 7.74646 9.16439C8.22514 9.06437 10.1424 8.97358 11.0002 9.00709C11.8584 8.97371 13.7749 9.06437 14.2534 9.16439C14.864 9.29184 15.4795 10.0586 15.389 10.8937C15.3368 11.376 15.0692 11.7301 14.8595 11.9386L14.8803 13.937L14.885 13.9361L14.9342 19.0964ZM18.6208 39.8241C18.9307 39.8241 19.7762 39.3844 20.3576 38.508C20.7414 37.9294 21.1033 37.0146 20.6471 35.9422C18.8403 31.6933 13.8865 19.5475 13.8367 19.4253L13.7957 19.3251L13.7568 14.6187L13.7467 14.6195L13.7128 11.3796L13.9685 11.2084C13.9684 11.2084 13.9687 11.2081 13.9693 11.2077C13.9859 11.195 14.2293 11.0085 14.255 10.7718C14.2791 10.5501 14.0954 10.3181 14.0093 10.2765C13.6481 10.2066 11.8354 10.1084 11.0182 10.1456L11.018 10.1472L10.9998 10.1465L10.9815 10.1472L10.9814 10.1456C10.1642 10.1084 8.35175 10.2066 7.99043 10.2763C7.90425 10.3181 7.7206 10.5501 7.74456 10.7718C7.77105 11.0158 8.02845 11.2065 8.03111 11.2083L8.28674 11.3795L8.25112 14.803H8.24821L8.20398 19.3249L8.16304 19.4252C8.11336 19.5473 3.15949 31.6932 1.35273 35.942C0.89661 37.0146 1.25857 37.9295 1.64233 38.508C2.22379 39.3843 3.06912 39.8241 3.379 39.8241C5.00997 39.8241 9.20329 39.8471 10.9999 39.8573C12.7965 39.8471 16.9899 39.8241 18.6208 39.8241Z" fill="white"/>
<path fill-rule="evenodd" clip-rule="evenodd" d="M4.02572 33.7813L3.33906 35.2777C2.43904 36.8925 3.53777 37.8508 4.23933 37.9932C4.26962 37.9995 6.7045 38.0007 9.53706 37.9997C10.489 37.7339 11.4317 37.4205 12.3743 37.0078C14.7022 35.9613 16.6836 34.4677 18 32.5986L16.8212 30C13.1492 31.9769 8.08902 32.3665 4.04328 33.7425L4.02572 33.7813Z" fill="url(#paint3_linear)"/>
<path fill-rule="evenodd" clip-rule="evenodd" d="M15 26.6491L13.4482 23.1303C10.3364 22.4026 8.33614 24.9612 8.33614 24.9612L7 27.9575C9.70589 28.1488 12.4942 27.6912 15 26.6491Z" fill="url(#paint4_linear)"/>
<path fill-rule="evenodd" clip-rule="evenodd" d="M6.70138 28.3343L4 34C8.11605 32.6532 13.2642 32.2718 17 30.337L15.4267 27C12.6937 28.0628 9.6526 28.5296 6.70138 28.3343Z" fill="url(#paint5_linear)"/>
<path fill-rule="evenodd" clip-rule="evenodd" d="M18.6171 35.3905C18.617 35.3903 18.6165 35.3894 18.6165 35.3894L17.4478 33C16.1336 34.7303 14.1559 36.1129 11.8322 37.0815C10.8912 37.4635 9.95012 37.7536 9 37.9997C9.56878 37.9995 10.1528 37.9993 10.7373 37.999C14.2283 38.0008 17.7265 38.0008 17.7629 37.9937C18.4632 37.8618 19.56 36.9748 18.6615 35.48L18.6171 35.3905Z" fill="url(#paint6_linear)"/>
<path fill-rule="evenodd" clip-rule="evenodd" d="M6.68116 32.8511C7.35594 33.1423 8.81823 31.3304 9.94729 28.8041C11.0763 26.2778 11.4446 23.9938 10.7698 23.7026C10.0951 23.4114 8.63276 25.2233 7.50371 27.7496C6.37465 30.2759 6.00639 32.5599 6.68116 32.8511Z" fill="white"/>
<defs>
<linearGradient id="paint0_linear" x1="17.2796" y1="8.48704" x2="17.2796" y2="-0.801342" gradientUnits="userSpaceOnUse">
<stop stop-color="#EC008C"/>
<stop offset="1" stop-color="#512D91"/>
</linearGradient>
<linearGradient id="paint1_linear" x1="14.3955" y1="8.48697" x2="14.3955" y2="-0.80141" gradientUnits="userSpaceOnUse">
<stop stop-color="#EC008C"/>
<stop offset="1" stop-color="#512D91"/>
</linearGradient>
<linearGradient id="paint2_linear" x1="17.0946" y1="8.48702" x2="17.0946" y2="-0.801357" gradientUnits="userSpaceOnUse">
<stop stop-color="#EC008C"/>
<stop offset="1" stop-color="#512D91"/>
</linearGradient>
<linearGradient id="paint3_linear" x1="6.89456" y1="33.7242" x2="7.67955" y2="36.9455" gradientUnits="userSpaceOnUse">
<stop stop-color="#EC008C"/>
<stop offset="1" stop-color="#512D91"/>
</linearGradient>
<linearGradient id="paint4_linear" x1="8.40334" y1="23.5207" x2="8.38015" y2="26.8507" gradientUnits="userSpaceOnUse">
<stop stop-color="#EC69B5"/>
<stop offset="0.328" stop-color="#EC008C"/>
<stop offset="1" stop-color="#512D91"/>
</linearGradient>
<linearGradient id="paint5_linear" x1="6.92908" y1="29.2532" x2="7.19795" y2="32.0209" gradientUnits="userSpaceOnUse">
<stop stop-color="#EC008C"/>
<stop offset="1" stop-color="#512D91"/>
</linearGradient>
<linearGradient id="paint6_linear" x1="10.562" y1="36.4992" x2="11.1329" y2="39.7609" gradientUnits="userSpaceOnUse">
<stop stop-color="#EC008C"/>
<stop offset="0.1973" stop-color="#C30C8D"/>
<stop offset="0.4593" stop-color="#921A8F"/>
<stop offset="0.69" stop-color="#6F2490"/>
<stop offset="0.8781" stop-color="#592B91"/>
<stop offset="1" stop-color="#512D91"/>
</linearGradient>
</defs>
</svg>

<svg width="22" height="41" viewBox="0 0 22 41" fill="none" xmlns="http://www.w3.org/2000/svg"><path fill-rule="evenodd" clip-rule="evenodd" d="M12.206 7.911c.934 0 1.69-.693 1.69-1.547 0-.855-.756-1.548-1.69-1.548-.933 0-1.69.693-1.69 1.548 0 .854.757 1.547 1.69 1.547z" fill="url(#paint0_linear)"/><path fill-rule="evenodd" clip-rule="evenodd" d="M9.322 4.555c.725 0 1.313-.538 1.313-1.201 0-.664-.588-1.202-1.313-1.202S8.01 2.69 8.01 3.354c0 .663.587 1.201 1.312 1.201z" fill="url(#paint1_linear)"/><path fill-rule="evenodd" clip-rule="evenodd" d="M12.984.895c0 .487-.432.882-.963.882-.533 0-.965-.395-.965-.882 0-.488.432-.883.965-.883.531 0 .963.396.963.883z" fill="url(#paint2_linear)"/><path fill-rule="evenodd" clip-rule="evenodd" d="M14.934 19.096c.482 1.18 5.047 12.366 6.763 16.402.51 1.2.372 2.492-.388 3.638-.69 1.041-1.847 1.826-2.688 1.826-1.414 0-4.759.017-6.791.029V41h-.028L11 40.995l-.72.004-.11.001v-.01a1761.48 1761.48 0 0 0-6.791-.028c-.842 0-1.997-.785-2.688-1.826-.76-1.146-.898-2.439-.388-3.639 1.716-4.035 6.281-15.22 6.763-16.4l.052-4.205a.04.04 0 0 1-.003 0l-.006.001.031-2.954c-.21-.209-.477-.563-.53-1.045-.09-.835.526-1.602 1.136-1.73.48-.1 2.396-.19 3.254-.157.858-.033 2.775.057 3.253.157.611.128 1.226.895 1.136 1.73-.052.482-.32.836-.53 1.045l.021 1.998h.005l.05 5.16zm3.687 20.728c.31 0 1.155-.44 1.737-1.316.383-.579.745-1.493.29-2.566-1.808-4.249-6.761-16.395-6.811-16.517l-.041-.1-.04-4.706h-.01l-.033-3.24.256-.17v-.001c.017-.013.26-.2.286-.436.024-.222-.16-.454-.246-.495-.36-.07-2.174-.169-2.99-.131l-.001.001h-.036v-.001c-.818-.038-2.63.06-2.992.13-.086.042-.27.274-.245.496.026.244.283.434.286.436l.256.171-.036 3.424h-.003l-.044 4.522-.041.1c-.05.122-5.004 12.268-6.81 16.517-.456 1.073-.094 1.987.29 2.566.58.876 1.426 1.316 1.736 1.316 1.631 0 5.824.023 7.62.033 1.797-.01 5.99-.033 7.622-.033z" fill="#fff"/><path fill-rule="evenodd" clip-rule="evenodd" d="M4.026 33.781l-.687 1.497c-.9 1.614.199 2.573.9 2.715.03.006 2.466.008 5.298.007.952-.266 1.895-.58 2.837-.992 2.328-1.047 4.31-2.54 5.626-4.41L16.821 30c-3.672 1.977-8.732 2.367-12.778 3.742l-.017.04z" fill="url(#paint3_linear)"/><path fill-rule="evenodd" clip-rule="evenodd" d="M15 26.65l-1.552-3.52c-3.112-.727-5.112 1.831-5.112 1.831L7 27.958a17.764 17.764 0 0 0 8-1.309z" fill="url(#paint4_linear)"/><path fill-rule="evenodd" clip-rule="evenodd" d="M6.701 28.334L4 34c4.116-1.347 9.264-1.728 13-3.663L15.427 27A20.582 20.582 0 0 1 6.7 28.334z" fill="url(#paint5_linear)"/><path fill-rule="evenodd" clip-rule="evenodd" d="M18.617 35.39L17.447 33c-1.313 1.73-3.291 3.113-5.615 4.081-.94.383-1.882.673-2.832.919l1.737-.001c3.491.002 6.99.002 7.026-.005.7-.132 1.797-1.02.898-2.514l-.044-.09z" fill="url(#paint6_linear)"/><path fill-rule="evenodd" clip-rule="evenodd" d="M6.681 32.851c.675.291 2.137-1.52 3.266-4.047 1.13-2.526 1.498-4.81.823-5.101-.675-.292-2.137 1.52-3.266 4.047-1.13 2.526-1.498 4.81-.823 5.101z" fill="#fff"/><defs><linearGradient id="paint0_linear" x1="17.28" y1="8.487" x2="17.28" y2="-.801" gradientUnits="userSpaceOnUse"><stop stop-color="#EC008C"/><stop offset="1" stop-color="#512D91"/></linearGradient><linearGradient id="paint1_linear" x1="14.396" y1="8.487" x2="14.396" y2="-.801" gradientUnits="userSpaceOnUse"><stop stop-color="#EC008C"/><stop offset="1" stop-color="#512D91"/></linearGradient><linearGradient id="paint2_linear" x1="17.095" y1="8.487" x2="17.095" y2="-.801" gradientUnits="userSpaceOnUse"><stop stop-color="#EC008C"/><stop offset="1" stop-color="#512D91"/></linearGradient><linearGradient id="paint3_linear" x1="6.895" y1="33.724" x2="7.68" y2="36.946" gradientUnits="userSpaceOnUse"><stop stop-color="#EC008C"/><stop offset="1" stop-color="#512D91"/></linearGradient><linearGradient id="paint4_linear" x1="8.403" y1="23.521" x2="8.38" y2="26.851" gradientUnits="userSpaceOnUse"><stop stop-color="#EC69B5"/><stop offset=".328" stop-color="#EC008C"/><stop offset="1" stop-color="#512D91"/></linearGradient><linearGradient id="paint5_linear" x1="6.929" y1="29.253" x2="7.198" y2="32.021" gradientUnits="userSpaceOnUse"><stop stop-color="#EC008C"/><stop offset="1" stop-color="#512D91"/></linearGradient><linearGradient id="paint6_linear" x1="10.562" y1="36.499" x2="11.133" y2="39.761" gradientUnits="userSpaceOnUse"><stop stop-color="#EC008C"/><stop offset=".197" stop-color="#C30C8D"/><stop offset=".459" stop-color="#921A8F"/><stop offset=".69" stop-color="#6F2490"/><stop offset=".878" stop-color="#592B91"/><stop offset="1" stop-color="#512D91"/></linearGradient></defs></svg>
